X:1
T:Title
%%score ( 1 2 ) ( 3 4 )
L:1/8
Q:1/4=115
M:4/4
K:C
V:1 treble nm="Grand Piano, Soprano"
V:2 treble 
V:3 bass nm="Choir Pad, Glory to God in the Highest"
V:4 bass 
V:1
 C2 [CE]2 C2 [CE]2 | [EG]2 [EG]6 | [CA]2 [CG]2 [B,F]2 [CE]2 | [B,D]2 [CE]6 | C2 C2 [CE]2 [CE]2 | %5
w: By~J.~S.~Boyd * * *|||||
 [EG]2 [EG]2 [Fc]2 [Ec]2 | [DB]2 [Cc]2 [CA]2 GA | GE [B,D]6 | [B,E][B,D] C2 CC E2 | DC G2 G2 z2 | %10
w: |||||
 z2 [DG]2 [DG][DG] [GB]2 | [FA][FG] [Fd]2 [Ec]2 z2 | z2 [Ge]2 [Ge][Ge] [Af]2 | %13
w: |||
 [Ge][Ge] [Gd]4 [Ge]2 | [Fd]2 [Ec]2 [FB]2 [Gc]2 | [FA]2 G2- [FG]2 c2- | [Ec]2 F2- [FB]2 [Gc]2 | %17
w: ||||
 z2 G6 | [EG]2 [FA]6 | [Fc]2 [EG]6 | [CE]2 [B,D]6 | [DF]2 [CE]6 | z2 A4 z2 | [FB]2 [Ec]6 | %24
w: |||||||
 G2 F-[FB] [Gc][Ad] [Ge]2 | z2 c6- | c6 z2 |] %27
w: |||
V:2
 x8 | x8 | x8 | x8 | x8 | x8 | z4 z2 C2 | C2 z2 z4 | x8 | x8 | x8 | x8 | x8 | x8 | x8 | %15
 z2 E2 z2 G2 | z2 A2 z4 | [FA]2 E2 E2 E2 | x8 | x8 | x8 | x8 | [EG]2 C2- C-[C-G] [CA]2 | x8 | %24
 z2 .A2 z4 | [Fd]2 E2 FF E2- | E6 z2 |] %27
V:3
 [C,E,]2 [C,G,]2 [C,E,]2 [C,G,]2 | [C,C]2 [C,C]6 | [F,C]2 [E,C]2 [D,G,]2 [C,G,]2 | %3
 [G,,G,]2 [C,G,]6 | [C,E,]2 [C,E,]2 [C,G,]2 [C,G,]2 | [C,C]2 [C,C]2 [C,A,]2 [C,G,]2 | z4 .A,2 C2 | %7
 [E,C][C,G,] [G,,G,]6 | [G,,G,][G,,G,] C,2 C,C, E,2 | D,C, G,2 G,2 G,2 | %10
 G,2 [G,B,]2 [G,B,][G,B,] [G,D]2 | [G,C][G,B,][K:treble] C2 C2 G,2 | G,2 C2 CC C2 | %13
 CC[K:bass] [G,B,]4 C2 | z2 G,4 z2 | z2 C4 C2- | C2 z2 z2 C2- | C2 z2 z4 | %18
 [C,C]2 [F,C]2 [F,C]2 [F,C]2 | [A,C]2 C2 C2 C2 | [C,G,]2 [G,,G,]2 [G,,G,]2 [G,,G,]2 | %21
 [G,,G,]2 [C,G,]2 [C,G,]2 [C,G,]2 | [C,G,]2 F,2- F,/ z/ [E,G,] F,2 | [D,G,]2 [C,F,]6 | z4 C2 z2 | %25
 z2 G,2 z4 | z8 |] %27
V:4
 x8 | x8 | x8 | x8 | x8 | x8 | [F,G,]2 [E,G,]2 F,-[F,C]E,F, | x8 | x8 | x8 | x8 | x2[K:treble] x6 | %12
 x8 | x2[K:bass] x6 | [G,B,]2 C,2 D,2 [E,C]2 | [F,C]2 C,2 D,2 E,2 | C,2 [F,C]2 [D,G,]2 E,2 | %17
 F,2 [C,C]2 [C,G,]2 [C,G,]2 | x8 | x8 | x8 | x8 | x8 | x8 | [E,C]2 [F,C]2 E,F, [G,D]2 | %25
 [G,,G,]2 C,2- [C,-A,][C,-A,] [C,G,]2- | [C,G,]6 z2 |] %27

